img/logo.svg

<svg fill="none" height="16" viewBox="0 0 100 16" width="100" xmlns="http://www.w3.org/2000/svg"><g fill="#293d38"><path d="m63.9719.176984c-3.0776.507106-5.6306 3.060126-6.1727 6.172706-.7344 4.26671 2.0284 8.16611 6.2601 8.84811 2.0285.3323 4.5115-.1224 5.9105-1.0667.647-.4546 1.871-1.5737 1.871-1.7311 0-.0525-.2448-.2798-.5421-.5071l-.5246-.3847-.6819.612c-1.2765 1.1541-2.3257 1.5563-4.1968 1.6437-2.0634.0875-3.2175-.2972-4.5464-1.4863-1.5563-1.3989-2.2383-3.14757-2.0285-5.17599.2274-2.16832 1.4514-3.93445 3.3924-4.87871 1.0667-.5246 1.294-.57706 2.8328-.57706 1.4164 0 1.8011.06995 2.6579.47214.5421.24481 1.3465.78689 1.7836 1.18907l.7869.71695.5246-.3847c.2973-.22733.5421-.47214.5421-.54208 0-.34973-1.6787-1.74865-2.6754-2.220779-1.0142-.507106-2.8153-.9092937-3.7946-.87432087-.2448.01748647-.8743.08743207-1.3989.17486387z"/><path d="m99.4693.509185c-1.5388 1.136615-5.6831 2.727885-9.0055 3.409855-5.2459 1.11913-6.5224 1.62623-7.9388 3.16504-.4547.48962-1.0142 1.34645-1.2591 1.88853l-.4196.97924h-1.2241c-1.5213 0-2.3781-.22732-3.4448-.90929-.6995-.43716-.9093-.48962-1.3115-.34973-.4721.15738-.4721.17486.6645.69946 1.4863.66451 3.3224 1.08411 4.8437 1.08411.8569 0 1.2766.07 1.4339.2623.7869.9443 4.3891 1.364 6.2951.717 3.9695-1.3465 7.4667-4.44157 11.034-9.75744 1.0489-1.556289 1.1189-1.7836129.3322-1.189075zm-.9617 1.171595c-2.2383 3.51477-5.823 7.09948-8.376 8.39352-2.7629 1.3989-5.4908 1.6262-7.764.647l-.647-.2798 1.1366-.2448c.6295-.1224 1.8186-.47217 2.6579-.76944 1.6438-.55957 4.7389-1.94099 4.6339-2.04591-.0349-.03497-.7169.20984-1.4863.54208-2.3607 1.01421-6.8722 2.25577-7.1519 1.97596-.1749-.19235.647-1.71367 1.3464-2.46558 1.3814-1.50383 2.5181-1.95848 7.2569-2.88526 3.6197-.71694 6.2951-1.6787 7.9563-2.88526.7694-.55957.8044-.55957.4372.01749z"/><path d="m.0590167.561636c-.05245929.104918-.0699457 3.392364-.05245929 7.291834l.05245929 7.08203 2.6229633-.0175c2.36067 0 2.71039-.0525 3.54974-.4197 2.20329-.9617 3.0951-3.4273 2.04591-5.54318-.82186-1.64373-2.06339-2.25575-5.0186-2.4481l-1.71367-.10492v-4.49401h5.77052v-1.573778h-3.58472c-2.71039 0-3.619684.05246-3.6721433.227324zm5.6830833 7.921344c1.76613 1.0317 1.87105 3.44482.19235 4.47652-.52459.3322-.92678.4022-2.50055.4721l-1.88854.0525v-5.49074l1.8011.06995c1.39892.05246 1.92351.13989 2.39564.41967z"/><path d="m12.387 15.0403.7519-.0524.7344-.0525v-14.513716l-.7344-.052459-.7519-.052459z"/><path d="m17.4579.456772c0 .087432.9442 1.678698 2.0983 3.532258s2.0984 3.40985 2.0984 3.46231c0 .03497-1.0142 1.71367-2.2732 3.72456-1.2416 1.9935-2.2733 3.6897-2.2733 3.7421 0 .0525.3673.105.8394.105h.8219l1.836-2.9902c.9968-1.6437 1.8711-3.00768 1.9235-3.04266.0525-.03497.647.85684 1.3115 1.97596 2.5006 4.1618 2.4131 4.0569 3.3224 4.0569.4372 0 .7869-.0525.7869-.1399 0-.07-1.0142-1.7662-2.2732-3.7946-2.0634-3.32241-2.2383-3.68962-2.0284-4.02186 1.2065-1.85356 3.9519-6.400031 3.9519-6.539922 0-.104919-.3322-.192351-.7694-.192351h-.7519l-1.7137 2.797823c-.9443 1.53881-1.7661 2.79783-1.8186 2.79783-.0524-.01749-.8568-1.25902-1.7661-2.76285l-1.6612-2.745371-.8219-.052459c-.4721-.034973-.8393.017486-.8393.087432z"/><path d="m31.4469 15.023h8.2186v-1.5738h-6.8197v-5.59568h6.8197v-1.48635h-6.7322l-.1049-4.45903h7.0295l-.0525-.75192-.0524-.734429-4.1443-.052459-4.1618-.034973z"/><path d="m47.7446 1.94311c-2.8153 6.45249-5.6307 12.93999-5.6307 13.00989 0 .0525.3673.07.8219.035l.8219-.0525 2.3606-5.47323c1.3115-2.99018 2.4132-5.45576 2.4656-5.45576.0525 0 1.1541 2.48307 2.4481 5.50822l2.3432 5.50827h.7694c.7169 0 .7694-.035.6645-.4022-.1924-.752-6.0328-14.199009-6.1902-14.251468-.0874-.017487-.4721.681968-.8743 1.573778z"/></g></svg>

<svg width="100" height="16" viewBox="0 0 100 16" fill="none" xmlns="http://www.w3.org/2000/svg">
<path d="M63.9719 0.176984C60.8943 0.68409 58.3413 3.23711 57.7992 6.34969C57.0648 10.6164 59.8276 14.5158 64.0593 15.1978C66.0878 15.5301 68.5708 15.0754 69.9698 14.1311C70.6168 13.6765 71.8408 12.5574 71.8408 12.4C71.8408 12.3475 71.596 12.1202 71.2987 11.8929L70.7741 11.5082L70.0922 12.1202C68.8157 13.2743 67.7665 13.6765 65.8954 13.7639C63.832 13.8514 62.6779 13.4667 61.349 12.2776C59.7927 10.8787 59.1107 9.13003 59.3205 7.10161C59.5479 4.93329 60.7719 3.16716 62.7129 2.2229C63.7796 1.6983 64.0069 1.64584 65.5457 1.64584C66.9621 1.64584 67.3468 1.71579 68.2036 2.11798C68.7457 2.36279 69.5501 2.90487 69.9872 3.30705L70.7741 4.024L71.2987 3.6393C71.596 3.41197 71.8408 3.16716 71.8408 3.09722C71.8408 2.74749 70.1621 1.34857 69.1654 0.876441C68.1512 0.369335 66.3501 -0.0328527 65.3708 0.00212013C65.126 0.0196066 64.4965 0.0895522 63.9719 0.176984Z" fill="#293D38"/>
<path d="M99.4693 0.509185C97.9305 1.6458 93.7862 3.23707 90.4638 3.91904C85.2179 5.03817 83.9414 5.54527 82.525 7.08408C82.0703 7.5737 81.5108 8.43053 81.2659 8.97261L80.8463 9.95185H79.6222C78.1009 9.95185 77.2441 9.72453 76.1774 9.04256C75.4779 8.6054 75.2681 8.55294 74.8659 8.69283C74.3938 8.85021 74.3938 8.86769 75.5304 9.39229C77.0167 10.0568 78.8528 10.4764 80.3741 10.4764C81.231 10.4764 81.6507 10.5464 81.808 10.7387C82.5949 11.683 86.1971 12.1027 88.1031 11.4557C92.0726 10.1092 95.5698 7.01413 99.1371 1.69826C100.186 0.141971 100.256 -0.0853529 99.4693 0.509185ZM98.5076 1.68078C96.2693 5.19555 92.6846 8.78026 90.1316 10.0743C87.3687 11.4732 84.6408 11.7005 82.3676 10.7213L81.7206 10.4415L82.8572 10.1967C83.4867 10.0743 84.6758 9.72453 85.5151 9.42726C87.1589 8.86769 90.254 7.48627 90.149 7.38135C90.1141 7.34638 89.4321 7.59119 88.6627 7.92343C86.302 8.93764 81.7905 10.1792 81.5108 9.89939C81.3359 9.70704 82.1578 8.18572 82.8572 7.43381C84.2386 5.92998 85.3753 5.47533 90.1141 4.54855C93.7338 3.83161 96.4092 2.86985 98.0704 1.66329C98.8398 1.10372 98.8748 1.10372 98.5076 1.68078Z" fill="#293D38"/>
<path d="M0.0590167 0.561636C0.00655741 0.666554 -0.010929 3.954 0.00655741 7.85347L0.0590167 14.9355L2.68198 14.918C5.04265 14.918 5.39237 14.8655 6.23172 14.4983C8.43501 13.5366 9.32682 11.071 8.27763 8.95512C7.45577 7.31139 6.21424 6.69937 3.25903 6.50702L1.54536 6.4021V1.90809H7.31588V0.334312H3.73116C1.02077 0.334312 0.111476 0.386772 0.0590167 0.561636ZM5.7421 8.48298C7.50823 9.51468 7.61315 11.9278 5.93445 12.9595C5.40986 13.2917 5.00767 13.3617 3.4339 13.4316L1.54536 13.4841V7.99336L3.34646 8.06331C4.74538 8.11577 5.26997 8.2032 5.7421 8.48298Z" fill="#293D38"/>
<path d="M12.387 15.0403L13.1389 14.9879L13.8733 14.9354V0.421684L13.1389 0.369225L12.387 0.316766V15.0403Z" fill="#293D38"/>
<path d="M17.4579 0.456772C17.4579 0.544204 18.4021 2.13547 19.5562 3.98903C20.7103 5.84259 21.6546 7.39888 21.6546 7.45134C21.6546 7.48631 20.6404 9.16501 19.3814 11.1759C18.1398 13.1694 17.1081 14.8656 17.1081 14.918C17.1081 14.9705 17.4754 15.023 17.9475 15.023H18.7694L20.6054 12.0328C21.6022 10.3891 22.4765 9.02512 22.5289 8.99014C22.5814 8.95517 23.1759 9.84698 23.8404 10.9661C26.341 15.1279 26.2535 15.023 27.1628 15.023C27.6 15.023 27.9497 14.9705 27.9497 14.8831C27.9497 14.8131 26.9355 13.1169 25.6765 11.0885C23.6131 7.76609 23.4382 7.39888 23.6481 7.06664C24.8546 5.21308 27.6 0.666609 27.6 0.526718C27.6 0.421799 27.2678 0.334367 26.8306 0.334367H26.0787L24.365 3.13219C23.4207 4.671 22.5989 5.93002 22.5464 5.93002C22.494 5.91253 21.6896 4.671 20.7803 3.16717L19.1191 0.421799L18.2972 0.36934C17.8251 0.334367 17.4579 0.386826 17.4579 0.456772Z" fill="#293D38"/>
<path d="M31.4469 15.023H39.6655V13.4492H32.8458V7.85352H39.6655V6.36717H32.9333L32.8284 1.90814H39.8579L39.8054 1.15622L39.753 0.421791L35.6087 0.369332L31.4469 0.334359V15.023Z" fill="#293D38"/>
<path d="M47.7446 1.94311C44.9293 8.3956 42.1139 14.8831 42.1139 14.953C42.1139 15.0055 42.4812 15.023 42.9358 14.988L43.7577 14.9355L46.1183 9.46227C47.4298 6.47209 48.5315 4.00651 48.5839 4.00651C48.6364 4.00651 49.738 6.48958 51.032 9.51473L53.3752 15.023H54.1446C54.8615 15.023 54.914 14.988 54.8091 14.6208C54.6167 13.8688 48.7763 0.421791 48.6189 0.369332C48.5315 0.351845 48.1468 1.0513 47.7446 1.94311Z" fill="#293D38"/>
</svg>
